X:1
T:CASTLE CARY PIPES & DRUMS
M:6/8
L:1/8
Q:80
C:Bob Quigg
S:March
K:HP
|: {g}A3/2B/2{e}G{g}A3/2B/2d|
{g}e3/2d/2{e}B{Gdc}d3e/2g|
{d}B3/2{g}A/2{e}B{g}G2{gGd}G|  !
{g}B/2d3/2e{gef}e3/2d/2{e}B|
{g}A3/2B/2{e}G{g}A3/2B/2d|
{g}e3/2f/2g{ag}a3/2e/2d|  !
{g}c/2{d}A3/2{d}c{gde}d3/2B/2{d}G|
{g}A3/2{d}B/2{g}A{GAG}A2:|
e|:  !
{g}A3/2B/2{e}Ga2{GdG}a|
{f}g3/2e/2d{g}e3/2f/2g|
{d}B3/2{g}A/2{e}B{g}G2{gGd}G|  !
{g}B/2d3/2e{gef}e3/2d/2{e}B|1
{g}A3/2B/2{e}Ga2{GdG}a|
{f}g3/2e/2d{gef}e3/2d/2{e}B|  !
{g}G3/2A/2{g}B{gef}e3/2d/2{e}B|
{g}A3/2{d}B/2{g}A{GAG}A2:|2
{g}A3/2B/2{e}G{g}A3/2B/2d|  !
{g}e3/2f/2g{ag}a3/2e/2d|
{g}c/2{d}A3/2{d}c{gde}d3/2B/2{d}G|
{g}A3/2{d}B/2{g}A{GAG}A2|]  !

